X:1
T: James Lumsden
C:Alexander Walker
R:Strathspey
Q: 128
K:Bm
M:4/4
L:1/16
|:C2|B,B3 B3F BBB2 B4|A3B A3E C4 B,3A,|FB3 B3F B3c d3B|A3F E3C B,B,B,2 B,2C2|
B,B3 B3F BBB2 B4|A3B A3E C4 B,3A,|FB3 B3F B3c d3B|A3F E3C B,B,B,2 B,2c2|
dcB2 f3B b3B f3d|cBA2 e3A a3e c2A2|dcB2 f3B b3B f3d|c3A a3c BBB2 B3c|
dcB2 f3B b3B f3d|cBA2 e3A a3A e3c|B3d c3e d3e fb3|agfe a3c BBB2 B2:|
